actions/16/draw-star.svg

<svg xmlns="http://www.w3.org/2000/svg" viewBox="0 0 16 16">
  <defs id="defs3051">
    <style type="text/css" id="current-color-scheme">
      .ColorScheme-Text {
        color:#808080;
      }
      </style>
  </defs>
 <path style="fill:currentColor;fill-opacity:1;stroke:none" 
     d="m8.03 2l-1.875 3.939-4.15.621 2.982 3.08-.732 4.336 3.719-2.037 3.697 2.061-.684-4.34 3.02-3.062-4.143-.645zm-.008 2l1.221 2.635 2.762.432-2.01 2.041.455 2.893-2.463-1.373-2.48 1.357.488-2.891-1.988-2.055 2.766-.412z"
     class="ColorScheme-Text"
     />
</svg>

<svg xmlns="http://www.w3.org/2000/svg" version="1.1" viewBox="0 0 16 16">
 <defs>
  <style id="current-color-scheme" type="text/css">
   .ColorScheme-Text { color:#808080; }
  </style>
 </defs>
 <path class="ColorScheme-Text" d="M 8.03,2 6.155,5.939 2.005,6.56 4.987,9.64 4.255,13.976 7.974,11.939 11.671,14 10.987,9.66 14.007,6.598 9.864,5.953 Z M 8.022,4 9.243,6.635 12.005,7.067 9.995,9.108 10.45,12.001 7.987,10.628 5.507,11.985 5.995,9.094 4.007,7.039 6.773,6.627 Z" style="color:#808080;fill:currentColor"/>
</svg>
